app/assets/images/icons/active/hand-point.svg

<?xml version="1.0" encoding="UTF-8" standalone="no"?>
<svg width="32px" height="232px" viewBox="0 0 32 232" version="1.1" xmlns="http://www.w3.org/2000/svg" xmlns:xlink="http://www.w3.org/1999/xlink" xmlns:sketch="http://www.bohemiancoding.com/sketch/ns">
    <title>hand-point</title>
    <description>Created with Sketch (http://www.bohemiancoding.com/sketch)</description>
    <defs></defs>
    <g id="Actions" stroke="none" stroke-width="1" fill="none" fill-rule="evenodd" sketch:type="MSPage">
        <path d="M25.2041416,137.18587 L19.9703852,137.18587 C19.6852817,137.463189 19.3315965,137.621657 18.972033,137.609772 C19.3325763,137.79003 19.6607882,138.380324 19.6607882,138.380324 C19.6607882,138.380324 20.9706969,140.635523 18.5478067,141.25652 C18.5830773,141.370419 19.8763304,141.991416 19.6215988,142.896666 C19.3658873,143.803896 17.7679359,144.34962 17.7679359,144.34962 C17.7679359,144.34962 18.8074371,145.009244 18.390069,145.792671 C18.0050323,146.517663 16.6461367,146.986134 16.6461367,146.986134 C16.6461367,146.986134 7.54143843,147 7.24359831,147 C6.94771766,147 6.36477399,146.061076 5.68581608,146.568174 L5,135.253549 C5,135.253549 5.28706301,135.271377 5.46635493,135.259492 C7.46207971,135.16243 9.37354709,132.026741 9.37354709,132.026741 C9.37354709,132.026741 12.2245825,132 12.6086395,132 C14.4975729,132 15.0961924,133.477715 14.2007125,133.477715 C15.3078156,133.477715 13.7333779,133.584681 13.7333779,133.584681 C13.7333779,133.583691 15.6556224,133.564873 17.4181697,133.564873 C17.4563794,133.55893 17.4936094,133.551997 17.5347584,133.551997 L25.2041416,133.551997 C26.1966155,133.551997 27,134.366127 27,135.368438 C27,136.37174 26.1966155,137.18587 25.2041416,137.18587" id="hand-point--lp-blue" fill="#1D4F8D" sketch:type="MSShapeGroup"></path>
        <path d="M25.2041416,97.1858699 L19.9703852,97.1858699 C19.6852817,97.4631892 19.3315965,97.6216573 18.972033,97.6097722 C19.3325763,97.7900297 19.6607882,98.3803235 19.6607882,98.3803235 C19.6607882,98.3803235 20.9706969,100.635523 18.5478067,101.25652 C18.5830773,101.370419 19.8763304,101.991416 19.6215988,102.896666 C19.3658873,103.803896 17.7679359,104.34962 17.7679359,104.34962 C17.7679359,104.34962 18.8074371,105.009244 18.390069,105.792671 C18.0050323,106.517663 16.6461367,106.986134 16.6461367,106.986134 C16.6461367,106.986134 7.54143843,107 7.24359831,107 C6.94771766,107 6.36477399,106.061076 5.68581608,106.568174 L5,95.253549 C5,95.253549 5.28706301,95.2713767 5.46635493,95.2594916 C7.46207971,95.1624298 9.37354709,92.0267415 9.37354709,92.0267415 C9.37354709,92.0267415 12.2245825,92 12.6086395,92 C14.4975729,92 15.0961924,93.4777154 14.2007125,93.4777154 C15.3078156,93.4777154 13.7333779,93.5846814 13.7333779,93.5846814 C13.7333779,93.583691 15.6556224,93.5648729 17.4181697,93.5648729 C17.4563794,93.5589303 17.4936094,93.5519974 17.5347584,93.5519974 L25.2041416,93.5519974 C26.1966155,93.5519974 27,94.3661274 27,95.3684384 C27,96.3717398 26.1966155,97.1858699 25.2041416,97.1858699" id="hand-point--white" fill="#FFFFFF" sketch:type="MSShapeGroup"></path>
        <path d="M25.2041416,57.1858699 L19.9703852,57.1858699 C19.6852817,57.4631892 19.3315965,57.6216573 18.972033,57.6097722 C19.3325763,57.7900297 19.6607882,58.3803235 19.6607882,58.3803235 C19.6607882,58.3803235 20.9706969,60.6355233 18.5478067,61.2565203 C18.5830773,61.3704193 19.8763304,61.9914163 19.6215988,62.8966656 C19.3658873,63.8038957 17.7679359,64.3496203 17.7679359,64.3496203 C17.7679359,64.3496203 18.8074371,65.009244 18.390069,65.7926708 C18.0050323,66.5176626 16.6461367,66.986134 16.6461367,66.986134 C16.6461367,66.986134 7.54143843,67 7.24359831,67 C6.94771766,67 6.36477399,66.0610763 5.68581608,66.5681743 L5,55.253549 C5,55.253549 5.28706301,55.2713767 5.46635493,55.2594916 C7.46207971,55.1624298 9.37354709,52.0267415 9.37354709,52.0267415 C9.37354709,52.0267415 12.2245825,52 12.6086395,52 C14.4975729,52 15.0961924,53.4777154 14.2007125,53.4777154 C15.3078156,53.4777154 13.7333779,53.5846814 13.7333779,53.5846814 C13.7333779,53.583691 15.6556224,53.5648729 17.4181697,53.5648729 C17.4563794,53.5589303 17.4936094,53.5519974 17.5347584,53.5519974 L25.2041416,53.5519974 C26.1966155,53.5519974 27,54.3661274 27,55.3684384 C27,56.3717398 26.1966155,57.1858699 25.2041416,57.1858699" id="hand-point--body-grey" fill="#67737B" sketch:type="MSShapeGroup"></path>
        <path d="M25.2041416,17.1858699 L19.9703852,17.1858699 C19.6852817,17.4631892 19.3315965,17.6216573 18.972033,17.6097722 C19.3325763,17.7900297 19.6607882,18.3803235 19.6607882,18.3803235 C19.6607882,18.3803235 20.9706969,20.6355233 18.5478067,21.2565203 C18.5830773,21.3704193 19.8763304,21.9914163 19.6215988,22.8966656 C19.3658873,23.8038957 17.7679359,24.3496203 17.7679359,24.3496203 C17.7679359,24.3496203 18.8074371,25.009244 18.390069,25.7926708 C18.0050323,26.5176626 16.6461367,26.986134 16.6461367,26.986134 C16.6461367,26.986134 7.54143843,27 7.24359831,27 C6.94771766,27 6.36477399,26.0610763 5.68581608,26.5681743 L5,15.253549 C5,15.253549 5.28706301,15.2713767 5.46635493,15.2594916 C7.46207971,15.1624298 9.37354709,12.0267415 9.37354709,12.0267415 C9.37354709,12.0267415 12.2245825,12 12.6086395,12 C14.4975729,12 15.0961924,13.4777154 14.2007125,13.4777154 C15.3078156,13.4777154 13.7333779,13.5846814 13.7333779,13.5846814 C13.7333779,13.583691 15.6556224,13.5648729 17.4181697,13.5648729 C17.4563794,13.5589303 17.4936094,13.5519974 17.5347584,13.5519974 L25.2041416,13.5519974 C26.1966155,13.5519974 27,14.3661274 27,15.3684384 C27,16.3717398 26.1966155,17.1858699 25.2041416,17.1858699" id="hand-point--title-grey" fill="#3A434E" sketch:type="MSShapeGroup"></path>
    </g>
</svg>

<svg width="32" height="232" viewBox="0 0 32 232" xmlns="http://www.w3.org/2000/svg" xmlns:sketch="http://www.bohemiancoding.com/sketch/ns"><title>hand-point</title><g sketch:type="MSPage" fill="none"><path d="M25.204 137.186h-5.234c-.285.277-.639.436-.998.424.361.18.689.771.689.771s1.31 2.255-1.113 2.876c.035.114 1.329.735 1.074 1.64-.256.907-1.854 1.453-1.854 1.453s1.04.66.622 1.443c-.385.725-1.744 1.193-1.744 1.193l-9.403.014c-.296 0-.879-.939-1.558-.432l-.686-11.315s.287.018.466.006c1.996-.097 3.907-3.233 3.907-3.233s2.851-.027 3.235-.027c1.889 0 2.488 1.478 1.592 1.478 1.107 0-.467.107-.467.107 0-.001 1.922-.02 3.685-.02l.117-.013h7.669c.992 0 1.796.814 1.796 1.816 0 1.003-.803 1.817-1.796 1.817" fill="#1D4F8D" sketch:type="MSShapeGroup"/><path d="M25.204 97.186h-5.234c-.285.277-.639.436-.998.424.361.18.689.771.689.771s1.31 2.255-1.113 2.876c.035.114 1.329.735 1.074 1.64-.256.907-1.854 1.453-1.854 1.453s1.04.66.622 1.443c-.385.725-1.744 1.193-1.744 1.193l-9.403.014c-.296 0-.879-.939-1.558-.432l-.686-11.315s.287.018.466.006c1.996-.097 3.907-3.233 3.907-3.233s2.851-.027 3.235-.027c1.889 0 2.488 1.478 1.592 1.478 1.107 0-.467.107-.467.107 0-.001 1.922-.02 3.685-.02l.117-.013h7.669c.992 0 1.796.814 1.796 1.816 0 1.003-.803 1.817-1.796 1.817" fill="#fff" sketch:type="MSShapeGroup"/><path d="M25.204 57.186h-5.234c-.285.277-.639.436-.998.424.361.18.689.771.689.771s1.31 2.255-1.113 2.876c.035.114 1.329.735 1.074 1.64-.256.907-1.854 1.453-1.854 1.453s1.04.66.622 1.443c-.385.725-1.744 1.193-1.744 1.193l-9.403.014c-.296 0-.879-.939-1.558-.432l-.686-11.315s.287.018.466.006c1.996-.097 3.907-3.233 3.907-3.233s2.851-.027 3.235-.027c1.889 0 2.488 1.478 1.592 1.478 1.107 0-.467.107-.467.107 0-.001 1.922-.02 3.685-.02l.117-.013h7.669c.992 0 1.796.814 1.796 1.816 0 1.003-.803 1.817-1.796 1.817" fill="#67737B" sketch:type="MSShapeGroup"/><path d="M25.204 17.186h-5.234c-.285.277-.639.436-.998.424.361.18.689.771.689.771s1.31 2.255-1.113 2.876c.035.114 1.329.735 1.074 1.64-.256.907-1.854 1.453-1.854 1.453s1.04.66.622 1.443c-.385.725-1.744 1.193-1.744 1.193l-9.403.014c-.296 0-.879-.939-1.558-.432l-.686-11.315s.287.018.466.006c1.996-.097 3.907-3.233 3.907-3.233s2.851-.027 3.235-.027c1.889 0 2.488 1.478 1.592 1.478 1.107 0-.467.107-.467.107 0-.001 1.922-.02 3.685-.02l.117-.013h7.669c.992 0 1.796.814 1.796 1.816 0 1.003-.803 1.817-1.796 1.817" fill="#3A434E" sketch:type="MSShapeGroup"/></g></svg>
